X:3322
T:Polska från Högvålen
S:efter Olle Dahl
N:Polskan är spridd i många varianter i Härjedalen och södra Jämtland
R:Polska
O:Härjedalen
Z:transkr. Lennart Sohlman
M:3/4
L:1/8
K:Dm
((3A=B^c d>)(e f)(a|g>)e f>d e>^c|((3A=B^c d)(e f)(a|(3gfg)a4|!
((3A=B^c d>)(e f)(a|g>)e f>d e>^c|a(b/a/ g)(a/g/ f)(g/f/)|(e/f/e/^c/) d4::!
a>^c d2d2|a>^ce4|((3A=B^c d>)(e f)a|((3gfg)a4,|!
a>^c d2d2|a>^ce4|((3A=B^c d>)(e f)(g/f/)|(e/f/e/^c/) d4:|]

